public/figma-home/body.svg

<svg preserveAspectRatio="none" width="100%" height="100%" overflow="visible" style="display: block;" viewBox="0 0 555.02 32.58" fill="none" xmlns="http://www.w3.org/2000/svg">
<g id="content">
<path id="Vector" d="M551.734 12.0667V10H5.73437V12.0667C5.73437 18.1057 5.73437 21.1252 6.90892 23.4317C7.94209 25.4607 9.59064 27.1102 11.6184 28.144C13.9235 29.3193 16.9412 29.3193 22.9765 29.3193H534.492C540.528 29.3193 543.545 29.3193 545.85 28.144C547.878 27.1102 549.527 25.4607 550.56 23.4317C551.734 21.1252 551.734 18.1057 551.734 12.0667Z" fill="url(#paint0_linear_0_880)"/>
<g id="foot">
<path id="Vector_2" d="M520.303 30.6671C521.022 30.4874 521.501 29.6937 521.65 29.3193H485.954C486.104 29.6937 486.583 30.4874 487.301 30.6671C487.376 31.1913 487.705 32.2396 488.423 32.2396H519.181C519.899 32.2396 520.229 31.1913 520.303 30.6671Z" fill="url(#paint1_linear_0_880)"/>
<path id="Intersect" d="M520.271 30.8418C520.156 31.3938 519.826 32.2392 519.181 32.2393H488.423C487.753 32.239 487.424 31.3273 487.322 30.7793H520.271V30.8418Z" fill="url(#paint2_linear_0_880)"/>
<path id="Intersect_2" d="M520.271 30.8418C520.238 31.0001 520.185 31.1817 520.115 31.3613H487.491C487.411 31.1574 487.354 30.951 487.322 30.7793H520.271V30.8418Z" fill="var(--fill-0, #383838)"/>
</g>
<g id="foot_2">
<path id="Vector_3" d="M69.7187 30.6671C70.4372 30.4874 70.9161 29.6937 71.0658 29.3193H35.3692C35.5189 29.6937 35.9979 30.4874 36.7163 30.6671C36.7911 31.1913 37.1204 32.2396 37.8388 32.2396H68.5962C69.3146 32.2396 69.6439 31.1913 69.7187 30.6671Z" fill="url(#paint3_linear_0_880)"/>
<path id="Intersect_3" d="M69.6859 30.8428C69.5707 31.3948 69.2408 32.2393 68.5961 32.2393H37.8392C37.1692 32.2393 36.839 31.3274 36.7367 30.7793H69.6859V30.8428Z" fill="url(#paint4_linear_0_880)"/>
<path id="Intersect_4" d="M69.686 30.8428C69.653 31.0008 69.6003 31.182 69.5298 31.3613H36.9058C36.8256 31.1575 36.7689 30.951 36.7368 30.7793H69.686V30.8428Z" fill="var(--fill-0, #383838)"/>
</g>
<g id="Vector_4">
<path d="M231.139 10H326.105C326.105 14.0942 322.786 17.4132 318.692 17.4132H238.552C234.458 17.4132 231.139 14.0942 231.139 10Z" fill="url(#paint5_linear_0_880)"/>
<path d="M325.585 10.5C325.329 14.0846 322.342 16.9131 318.692 16.9131H238.552C234.902 16.913 231.916 14.0845 231.659 10.5H325.585Z" stroke="var(--stroke-0, white)" stroke-opacity="0.1"/>
</g>
<rect id="Rectangle" x="509.303" y="10" width="36.3701" height="14.8264" fill="url(#paint6_linear_0_880)"/>
<rect id="Rectangle_2" width="37.7171" height="14.8264" transform="matrix(-1 0 0 1 43.676 10)" fill="url(#paint7_linear_0_880)"/>
<g id="Rectangle_3" filter="url(#filter0_f_0_880)">
<path d="M541.183 10H547.02V19.0383C547.02 20.9943 545.434 22.58 543.478 22.58C542.21 22.58 541.183 21.5522 541.183 20.2845V10Z" fill="var(--fill-0, #D2D2DA)"/>
</g>
<g id="Rectangle_4" filter="url(#filter1_f_0_880)">
<path d="M14.9391 10H10V19.5832C10 21.2383 11.3417 22.58 12.9968 22.58C14.0695 22.58 14.9391 21.7104 14.9391 20.6376V10Z" fill="var(--fill-0, #D2D2DA)"/>
</g>
</g>
<defs>
<filter id="filter0_f_0_880" x="533.183" y="2" width="21.8372" height="28.58" filterUnits="userSpaceOnUse" color-interpolation-filters="sRGB">
<feFlood flood-opacity="0" result="BackgroundImageFix"/>
<feBlend mode="normal" in="SourceGraphic" in2="BackgroundImageFix" result="shape"/>
<feGaussianBlur stdDeviation="4" result="effect1_foregroundBlur_0_880"/>
</filter>
<filter id="filter1_f_0_880" x="0" y="0" width="24.9391" height="32.58" filterUnits="userSpaceOnUse" color-interpolation-filters="sRGB">
<feFlood flood-opacity="0" result="BackgroundImageFix"/>
<feBlend mode="normal" in="SourceGraphic" in2="BackgroundImageFix" result="shape"/>
<feGaussianBlur stdDeviation="5" result="effect1_foregroundBlur_0_880"/>
</filter>
<linearGradient id="paint0_linear_0_880" x1="278.734" y1="10" x2="278.734" y2="29.3193" gradientUnits="userSpaceOnUse">
<stop stop-color="#AEAFB4"/>
<stop offset="0.192522" stop-color="#AFB0B5"/>
<stop offset="0.376094" stop-color="#AFB0B5"/>
<stop offset="0.598958" stop-color="#7D7E82"/>
<stop offset="0.713542" stop-color="#696A6F"/>
<stop offset="0.852125" stop-color="#838489"/>
<stop offset="0.931356" stop-color="#ABACB0"/>
</linearGradient>
<linearGradient id="paint1_linear_0_880" x1="485.954" y1="30.7794" x2="521.65" y2="30.7794" gradientUnits="userSpaceOnUse">
<stop stop-color="#8C8D91"/>
<stop offset="0.173014" stop-color="#525358"/>
<stop offset="0.31824" stop-color="#78797D"/>
<stop offset="0.465029" stop-color="#A0A0A2"/>
<stop offset="0.691458" stop-color="#9A9A9C"/>
<stop offset="0.825754" stop-color="#4F5055"/>
<stop offset="0.941311" stop-color="#9E9EA0"/>
<stop offset="1" stop-color="#848589"/>
</linearGradient>
<linearGradient id="paint2_linear_0_880" x1="487.322" y1="31.5093" x2="520.271" y2="31.5093" gradientUnits="userSpaceOnUse">
<stop stop-color="#575757"/>
<stop offset="0.0827846" stop-color="#2D2D2D"/>
<stop offset="0.490477" stop-color="#4E4E4E"/>
<stop offset="0.824814" stop-color="#2A2A2A"/>
<stop offset="1" stop-color="#5C5C5C"/>
</linearGradient>
<linearGradient id="paint3_linear_0_880" x1="35.3692" y1="30.7794" x2="71.0658" y2="30.7794" gradientUnits="userSpaceOnUse">
<stop stop-color="#8C8D91"/>
<stop offset="0.173014" stop-color="#525358"/>
<stop offset="0.31824" stop-color="#78797D"/>
<stop offset="0.465029" stop-color="#A0A0A2"/>
<stop offset="0.691458" stop-color="#9A9A9C"/>
<stop offset="0.825754" stop-color="#4F5055"/>
<stop offset="0.941311" stop-color="#9E9EA0"/>
<stop offset="1" stop-color="#848589"/>
</linearGradient>
<linearGradient id="paint4_linear_0_880" x1="36.7367" y1="31.5093" x2="69.6859" y2="31.5093" gradientUnits="userSpaceOnUse">
<stop stop-color="#575757"/>
<stop offset="0.0827846" stop-color="#2D2D2D"/>
<stop offset="0.490477" stop-color="#4E4E4E"/>
<stop offset="0.824814" stop-color="#2A2A2A"/>
<stop offset="1" stop-color="#5C5C5C"/>
</linearGradient>
<linearGradient id="paint5_linear_0_880" x1="231.363" y1="13.5943" x2="326.105" y2="13.5943" gradientUnits="userSpaceOnUse">
<stop stop-color="#25262B"/>
<stop offset="0.015659" stop-color="#606166"/>
<stop offset="0.035819" stop-color="#9FA0A4"/>
<stop offset="0.0504351" stop-color="#C8C8CE"/>
<stop offset="0.479167" stop-color="#D7D8DD"/>
<stop offset="0.941214" stop-color="#CBCBD3"/>
<stop offset="0.970403" stop-color="#A7A8AC"/>
<stop offset="0.980129" stop-color="#595A5E"/>
<stop offset="1" stop-color="#27282C"/>
</linearGradient>
<linearGradient id="paint6_linear_0_880" x1="545.673" y1="17.6378" x2="509.303" y2="17.6378" gradientUnits="userSpaceOnUse">
<stop stop-color="#65666B" stop-opacity="0"/>
<stop offset="0.259918" stop-color="#65666B"/>
<stop offset="1" stop-color="#65666B" stop-opacity="0"/>
</linearGradient>
<linearGradient id="paint7_linear_0_880" x1="37.7171" y1="7.63785" x2="1.29098e-08" y2="7.63785" gradientUnits="userSpaceOnUse">
<stop stop-color="#65666B" stop-opacity="0"/>
<stop offset="0.259918" stop-color="#65666B"/>
<stop offset="1" stop-color="#65666B" stop-opacity="0"/>
</linearGradient>
</defs>
</svg>

<svg xmlns="http://www.w3.org/2000/svg" fill="none" overflow="visible" preserveAspectRatio="none" style="display:block" viewBox="0 0 555.02 32.58"><path fill="url(#a)" d="M551.734 12.067V10h-546v2.067c0 6.039 0 9.058 1.175 11.365a10.78 10.78 0 0 0 4.71 4.712c2.305 1.175 5.322 1.175 11.358 1.175h511.515c6.036 0 9.053 0 11.358-1.175a10.78 10.78 0 0 0 4.71-4.712c1.174-2.307 1.174-5.326 1.174-11.365"/><path fill="url(#b)" d="M520.303 30.667c.719-.18 1.198-.973 1.347-1.348h-35.696c.15.375.629 1.168 1.347 1.348.075.524.404 1.573 1.122 1.573h30.758c.718 0 1.048-1.049 1.122-1.573"/><path fill="url(#c)" d="M520.271 30.842c-.115.552-.445 1.397-1.09 1.397h-30.758c-.67 0-.999-.912-1.101-1.46h32.949z"/><path fill="var(--fill-0, #383838)" d="M520.271 30.842c-.033.158-.086.34-.156.52h-32.624a3.3 3.3 0 0 1-.169-.583h32.949z"/><path fill="url(#d)" d="M69.719 30.667c.718-.18 1.197-.973 1.347-1.348H35.369c.15.375.629 1.168 1.347 1.348.075.524.404 1.573 1.123 1.573h30.757c.719 0 1.048-1.049 1.123-1.573"/><path fill="url(#e)" d="M69.686 30.843c-.115.552-.445 1.396-1.09 1.396H37.84c-.67 0-1-.912-1.102-1.46h32.949z"/><path fill="var(--fill-0, #383838)" d="M69.686 30.843a3.3 3.3 0 0 1-.156.518H36.906a3.3 3.3 0 0 1-.17-.582h32.95z"/><path fill="url(#f)" d="M231.139 10h94.966a7.413 7.413 0 0 1-7.413 7.413h-80.14A7.413 7.413 0 0 1 231.139 10"/><path stroke="var(--stroke-0, white)" stroke-opacity=".1" d="M325.585 10.5a6.91 6.91 0 0 1-6.893 6.413h-80.14a6.91 6.91 0 0 1-6.893-6.413z"/><path fill="url(#g)" d="M509.303 10h36.37v14.826h-36.37z"/><path fill="url(#h)" d="M0 0h37.717v14.826H0z" transform="matrix(-1 0 0 1 43.676 10)"/><g filter="url(#i)"><path fill="var(--fill-0, #d2d2da)" d="M541.183 10h5.837v9.038a3.54 3.54 0 0 1-3.542 3.542 2.295 2.295 0 0 1-2.295-2.295z"/></g><g filter="url(#j)"><path fill="var(--fill-0, #d2d2da)" d="M14.94 10H10v9.583a2.997 2.997 0 0 0 2.997 2.997c1.072 0 1.942-.87 1.942-1.942z"/></g><defs><linearGradient id="a" x1="278.734" x2="278.734" y1="10" y2="29.319" gradientUnits="userSpaceOnUse"><stop stop-color="#aeafb4"/><stop offset=".193" stop-color="#afb0b5"/><stop offset=".376" stop-color="#afb0b5"/><stop offset=".599" stop-color="#7d7e82"/><stop offset=".714" stop-color="#696a6f"/><stop offset=".852" stop-color="#838489"/><stop offset=".931" stop-color="#abacb0"/></linearGradient><linearGradient id="b" x1="485.954" x2="521.65" y1="30.779" y2="30.779" gradientUnits="userSpaceOnUse"><stop stop-color="#8c8d91"/><stop offset=".173" stop-color="#525358"/><stop offset=".318" stop-color="#78797d"/><stop offset=".465" stop-color="#a0a0a2"/><stop offset=".691" stop-color="#9a9a9c"/><stop offset=".826" stop-color="#4f5055"/><stop offset=".941" stop-color="#9e9ea0"/><stop offset="1" stop-color="#848589"/></linearGradient><linearGradient id="c" x1="487.322" x2="520.271" y1="31.509" y2="31.509" gradientUnits="userSpaceOnUse"><stop stop-color="#575757"/><stop offset=".083" stop-color="#2d2d2d"/><stop offset=".49" stop-color="#4e4e4e"/><stop offset=".825" stop-color="#2a2a2a"/><stop offset="1" stop-color="#5c5c5c"/></linearGradient><linearGradient id="d" x1="35.369" x2="71.066" y1="30.779" y2="30.779" gradientUnits="userSpaceOnUse"><stop stop-color="#8c8d91"/><stop offset=".173" stop-color="#525358"/><stop offset=".318" stop-color="#78797d"/><stop offset=".465" stop-color="#a0a0a2"/><stop offset=".691" stop-color="#9a9a9c"/><stop offset=".826" stop-color="#4f5055"/><stop offset=".941" stop-color="#9e9ea0"/><stop offset="1" stop-color="#848589"/></linearGradient><linearGradient id="e" x1="36.737" x2="69.686" y1="31.509" y2="31.509" gradientUnits="userSpaceOnUse"><stop stop-color="#575757"/><stop offset=".083" stop-color="#2d2d2d"/><stop offset=".49" stop-color="#4e4e4e"/><stop offset=".825" stop-color="#2a2a2a"/><stop offset="1" stop-color="#5c5c5c"/></linearGradient><linearGradient id="f" x1="231.363" x2="326.105" y1="13.594" y2="13.594" gradientUnits="userSpaceOnUse"><stop stop-color="#25262b"/><stop offset=".016" stop-color="#606166"/><stop offset=".036" stop-color="#9fa0a4"/><stop offset=".05" stop-color="#c8c8ce"/><stop offset=".479" stop-color="#d7d8dd"/><stop offset=".941" stop-color="#cbcbd3"/><stop offset=".97" stop-color="#a7a8ac"/><stop offset=".98" stop-color="#595a5e"/><stop offset="1" stop-color="#27282c"/></linearGradient><linearGradient id="g" x1="545.673" x2="509.303" y1="17.638" y2="17.638" gradientUnits="userSpaceOnUse"><stop stop-color="#65666b" stop-opacity="0"/><stop offset=".26" stop-color="#65666b"/><stop offset="1" stop-color="#65666b" stop-opacity="0"/></linearGradient><linearGradient id="h" x1="37.717" x2="0" y1="7.638" y2="7.638" gradientUnits="userSpaceOnUse"><stop stop-color="#65666b" stop-opacity="0"/><stop offset=".26" stop-color="#65666b"/><stop offset="1" stop-color="#65666b" stop-opacity="0"/></linearGradient><filter id="i" width="21.837" height="28.58" x="533.183" y="2" color-interpolation-filters="sRGB" filterUnits="userSpaceOnUse"><feFlood flood-opacity="0" result="BackgroundImageFix"/><feBlend in="SourceGraphic" in2="BackgroundImageFix" result="shape"/><feGaussianBlur result="effect1_foregroundBlur_0_880" stdDeviation="4"/></filter><filter id="j" width="24.939" height="32.58" x="0" y="0" color-interpolation-filters="sRGB" filterUnits="userSpaceOnUse"><feFlood flood-opacity="0" result="BackgroundImageFix"/><feBlend in="SourceGraphic" in2="BackgroundImageFix" result="shape"/><feGaussianBlur result="effect1_foregroundBlur_0_880" stdDeviation="5"/></filter></defs></svg>
